X: 38
T:Jackson's Maid at the Fair (#148)
M:6/8
L:1/8
S:O'Farrell's Pocket Companion 1804-1810
K:D
A|FAF FEF|BcB B2 d|FAF FEF|ABA A2 c|
F2 F FEF|BcB Bcd|cBA BAF|ABA A2:|
|:d|cBA cec|BcB B2 d|cBA cec|ABA A2 d|
cBA cde|fdB Bcd|cBA BAF|ABA A2:||

